X: 15202
T: Gin I Had A Bonny Lass
R: reel
M: 4/4
K: Gmixolydian
c|B<GGA Bcde|fgfc{AB}A2 Fc|BGGA Bcdc|BGA^F {F}G2G:|
A|gagB gbgd|fgfc {AB}A2 FA|gagd gbgd|ga_ba g2 ge|
(fg)ag fefd|cAfc {AB}A2 Fc|BGGA Bcdc|BGA^F {F}G2G||

